!!!!SEGMENT: pl-sa--553-a-ix-33--002_bauer-joseph-anton--quartet.krn
!!!cenid: 18xx:559
!!!COM: Bauer, Joseph Anton
!!!COM-rismID: pe30000244
!!!CDT: 1725-1808
!!!CNT: German
!!!OTL: Quartet
!!!PDT:
!!!AGN: Secular
!!!SMS-siglum: PL-SA
!!!SMS-shelfmark: 553/A IX 33
!!!SMS-shelfwork: 002 W
!!!SMS-variant:
!!!SMS-altvar:
!!!NIFC-rismSourceID: 1001112135
!!!NIFC-rismChildID: 1001112135
!!!NIFC-islandoraID:
!!!URL-pdf-islandora:
!!!URL-scan: https://bc.bdsandomierz.pl/dlibra/publication/1309/edition/1277/content @EN{Scan in the Sandomierz Diocese Digital Library} @PL{Skany w portalu Cyfrowa Biblioteka Diecezjalna w Sandomierzu}
!!!ONB-nifc: Str. 9 – str. 11 (s. 1)
!!!AIN: 1 empty
!!!key:
**kern	**kern	**dynam
*part1	*part1	*part1
*staff2	*staff1	*
*Iempty	*Iempty	*
*I"keyb	*	*
*clefF4	*clefG2	*
*k[]	*k[]	*
*C:	*C:	*
*M4/4	*M4/4	*
*met(c)	*met(c)	*
=1	=1	=1
*2\right	*	*
*tremolo	*	*
8C\L 8E 8G	4e/ 4g 4cc	.
8C\ 8E 8G	.	.
8C\ 8E 8G	4c/	.
8C\J 8E 8G	.	.
8C\L 8E 8G	4e/	.
8C\ 8E 8G	.	.
8C\ 8E 8G	4g/	.
8C\J 8E 8G	.	.
=2	=2	=2
8C\L 8E 8G	4cc\	.
8C\ 8E 8G	.	.
8C\ 8E 8G	16ee\LL	.
.	16dd\	.
8C\J 8E 8G	16ee\	.
.	16ff\JJ	.
8C\L 8E 8G	4gg\	.
8C\ 8E 8G	.	.
8C\ 8E 8G	4r	.
8C\J 8E 8G	.	.
=3	=3	=3
8C\L 8F 8A	4cc\ 4ff 4aa	.
8C\ 8F 8A	.	.
8C\ 8F 8A	4c/	.
8C\J 8F 8A	.	.
8C\L 8F 8A	4f/	.
8C\ 8F 8A	.	.
8C\ 8F 8A	4a/	.
8C\J 8F 8A	.	.
=4	=4	=4
8C\L 8E 8G	4cc\	.
8C\ 8E 8G	.	.
8C\ 8E 8G	16ff\LL	.
.	16ee\	.
8C\J 8E 8G	16ff\	.
.	16gg\JJ	.
8C\L 8F 8A	4aa\	.
8C\ 8F 8A	.	.
8C\ 8F 8A	4r	.
8C\J 8F 8A	.	.
=5	=5	=5
8C\L 8E 8G	4cc\ 4ee 4gg	.
8C\ 8E 8G	.	.
8C\ 8E 8G	4c/	.
8C\J 8E 8G	.	.
8C\L 8E 8G	4e/	.
8C\ 8E 8G	.	.
8C\ 8E 8G	4g/	.
8C\J 8E 8G	.	.
=6	=6	=6
8C\L 8E 8G	4cc\	.
8C\ 8E 8G	.	.
8C\ 8E 8G	16ee\LL	.
.	16dd\	.
8C\J 8E 8G	16ee\	.
.	16ff\JJ	.
*Xtremolo	*	*
4C\ 4E 4G	4gg\	.
4r	4r	.
=7	=7	=7
*	*2\right	*
16GG/LL	2b\ 2dd	.
16G/	.	.
16F#X/	.	.
16G/JJ	.	.
*rep	*	*
16GG/LL	.	.
16G/	.	.
16F#/	.	.
16G/JJ	.	.
*Xrep	*	*
*rep	*	*
16GG/LL	4cc\ 4ee	.
16G/	.	.
16F#/	.	.
16G/JJ	.	.
*Xrep	*	*
*rep	*	*
16GG/LL	4dd\ 4ff	.
16G/	.	.
16F#/	.	.
16G/JJ	.	.
*Xrep	*	*
=8	=8	=8
4C\	16ee\LL	.
.	16cc\	.
.	16dd\	.
.	16ee\JJ	.
4r	16ff\LL	.
.	16gg\	.
.	16aa\	.
.	16bb\JJ	.
2r	16ccc\LL	.
.	16bb\	.
.	16aa\	.
.	16gg\JJ	.
.	16ff\LL	.
.	16ee\	.
.	16dd\	.
.	16cc\JJ	.
=9	=9	=9
16GG/LL	2b\ 2dd	.
16G/	.	.
16F#X/	.	.
16G/JJ	.	.
*rep	*	*
16GG/LL	.	.
16G/	.	.
16F#/	.	.
16G/JJ	.	.
*Xrep	*	*
*rep	*	*
16GG/LL	4cc\ 4ee	.
16G/	.	.
16F#/	.	.
16G/JJ	.	.
*Xrep	*	*
*rep	*	*
16GG/LL	4dd\ 4ff	.
16G/	.	.
16F#/	.	.
16G/JJ	.	.
*Xrep	*	*
=10	=10	=10
4C\	16ee\LL	.
.	16cc\	.
.	16b\	.
.	16cc\JJ	.
4r	16dd\LL	.
.	16cc\	.
.	16b\	.
.	16cc\JJ	.
!!LO:LB:g=original
16f#>/LL	8ryy	.
16g>/JJ	.	.
8ryy	32cc\LLL	.
.	32b\J	.
.	16cc\JJ	.
16d#>/LL	8ryy	.
16e>/JJ	.	.
!	!LO:TX:a:t=problem&colon; ukryta "3"	!
*Xtuplet	*Xtuplet	*
8ryy	24g/LL	.
.	24f/	.
.	24g/JJ	.
=11	=11	=11
16B\LL	8ryy	.
16c\JJ	.	.
8ryy	24e/LL	.
.	24d#/	.
.	24e/JJ	.
16F#\LL	8ryy	.
16G\JJ	.	.
8ryy	24c</LL	.
.	24B</	.
.	24c</JJ	.
16D#\LL	8ryy	.
16E\JJ	.	.
8ryy	24G</LL	.
.	24F#y</	.
.	24G</JJ	.
16BB\LL	8ryy	.
16C\JJ	.	.
8ryy	24E</LL	.
.	24D#y</	.
.	24E</JJ	.
=12	=12	=12
4C\	16r	.
.	16c/LL	.
.	16d/	.
.	16e/JJ	.
4r	16f/LL	.
.	16g/	.
.	16a/	.
.	16b/JJ	.
2r	16cc\LL	.
.	16g\	.
.	16a\	.
.	16b\JJ	.
.	16cc\LL	.
.	16dd\	.
.	16ee\	.
.	16ff\JJ	.
=13	=13	=13
4E\	16gg\LL	.
.	16cc\	.
.	16dd\	.
.	16ee\JJ	.
4r	16ff\LL	.
.	16gg\	.
.	16aa\	.
.	16bb\JJ	.
2r	16ccc\LL	.
.	16bb\	.
.	16aa\	.
.	16gg\JJ	.
.	16ff\LL	.
.	16ee\	.
.	16dd\	.
.	16cc\JJ	.
=14	=14	=14
.	8qqbb/	.
8F\L	16aa\LL	.
.	16gg\J	.
8F\	8aa\J	.
.	8qqgg/	.
8F\	16ff\LL	.
.	16ee\J	.
8F\J	8ff\J	.
*tremolo	*	*
8f\L	4cc\	.
8f\	.	.
8f\	4r	.
8f\J	.	.
=15	=15	=15
.	8qqaa/	.
8E\L	16gg\LL	.
.	16ff\J	.
8E\	8gg\J	.
8E\	16ee\LL	.
.	16dd\J	.
8E\J	8ee\J	.
8E\L	4cc\	.
8E\	.	.
8E\	4r	.
8E\J	.	.
*Xtremolo	*	*
!!LO:LB:g=original
=16	=16	=16
4d\	16g/LL	.
.	16dd/	.
.	16ff/	.
.	16dd/JJ	.
4B\	16g/LL	.
.	16dd/	.
.	16ff/	.
.	16dd/JJ	.
4c\	16g/LL	.
.	16cc/	.
.	16ee/	.
.	16cc/JJ	.
4C/	16g/LL	.
.	16cc/	.
.	16ee/	.
.	16cc/JJ	.
=17	=17	=17
4G\	16g/LL	.
.	16b/	.
.	16dd/	.
.	16b/JJ	.
4F\	16g/LL	.
.	16b/	.
.	16dd/	.
.	16b/JJ	.
4E\	16g/LL	.
.	16cc/	.
.	16ee/	.
.	16cc/JJ	.
4C/	16g/LL	.
.	16cc/	.
.	16ee/	.
.	16cc/JJ	.
=18	=18	=18
4G\	16g/LL	.
.	16dd/	.
.	16ff/	.
.	16dd/JJ	.
4F\	16g/LL	.
.	16dd/	.
.	16ff/	.
.	16dd/JJ	.
4E\	16g/LL	.
.	16cc/	.
.	16ee/	.
.	16cc/JJ	.
4C/	16g/LL	.
.	16cc/	.
.	16ee/	.
.	16cc/JJ	.
=19	=19	=19
!LO:TX:a:t=P:problem=mixed beam	!	!
8GG/L	4b\	.
8G\	.	.
8D\	4b\ 4dd 4gg	.
8BB\J	.	.
4GG/	4b\ 4dd 4gg	.
4r	4r	.
=20	=20	=20
*tremolo	*	*
8BB\L 8B	16g/LL	.
.	16d/	.
8BB\ 8B	16e/	.
.	16f#X/JJ	.
8BB\ 8B	16g/LL	.
.	16a/	.
8BB\J 8B	16b/	.
.	16cc/JJ	.
8BB\L 8B	16dd/LL	.
.	16cc/	.
8BB\ 8B	16b/	.
.	16a/JJ	.
8BB\ 8B	16g/LL	.
.	16f#X/	.
8BB\J 8B	16e/	.
.	16d/JJ	.
=21	=21	=21
8C\L 8c	8e/	.
8C\ 8c	8r	.
8C\ 8c	8g/	.
8C\J 8c	8r	.
8C\L 8c	8cc/	.
8C\ 8c	8r	.
8C\ 8c	8ee/	.
8C\J 8c	8r	.
!!LO:LB:g=original
=22	=22	=22
8C#\L 8c#y	16a/LL	.
.	16e/	.
8C#\ 8c#	16f#X/	.
.	16g#X/JJ	.
8C#\ 8c#	16a/LL	.
.	16b/	.
8C#\J 8c#	16cc#X/	.
.	16dd/JJ	.
8C#X\L 8c#y	16ee/LL	.
.	16dd/	.
8C#\ 8c#	16cc#/	.
.	16b/JJ	.
8C#\ 8c#	16a/LL	.
.	16g#/	.
8C#\J 8c#	16f#/	.
.	16e/JJ	.
=23	=23	=23
8D\L 8d	8f#X/	.
8D\ 8d	8r	.
8D\ 8d	8a/	.
8D\J 8d	8r	.
8D\L 8d	8dd\	.
8D\ 8d	8r	.
8D\ 8d	8ff#X\	.
8D\J 8d	8r	.
=24	=24	=24
8FF#\L 8F#	16dd\LL	.
.	16a\	.
8FF#\ 8F#	16b\	.
.	16cc#X\JJ	.
8FF#\ 8F#	16dd\LL	.
.	16ee\	.
8FF#\J 8F#	16ff#X\	.
.	16gg\JJ	.
8FF#\L 8F#X	16aa\LL	.
.	16gg\	.
8FF#\ 8F#	16ff#\	.
.	16ee\JJ	.
8FF#\ 8F#	16dd\LL	.
.	16cc#\	.
8FF#\J 8F#	16b\	.
.	16a\JJ	.
=25	=25	=25
4G\	4b\	.
!	!LO:TX:a:t=P:problem=pauza wysunięta przed nutę	!
4cc>\	16rb	.
.	16ee\LL>	.
.	16gg\	.
.	16ee\JJ	.
4b>\	16rgg	.
.	16dd\LL>	.
.	16gg\	.
.	16dd\JJ	.
4a>\	16rff	.
.	16cc\LL>	.
.	16gg\	.
.	16cc\JJ	.
=26	=26	=26
4g>\	4b\	.
4c\	16r	.
.	16e/LL	.
.	16g/	.
.	16e/JJ	.
4B\	16r	.
.	16d/LL	.
.	16g/	.
.	16d/JJ	.
!LO:TX:a:t=a	!	!
4A\	16r	.
.	16c/LL	.
.	16g/	.
.	16c/JJ	.
=27	=27	=27
4G\	16B</LL	.
.	16G</	.
.	16A</	.
.	16B</JJ	.
4r	16c/LL	.
.	16d/	.
.	16e/	.
.	16f/JJ	.
!!LO:LB:g=original
2r	16dd\LL	.
.	16g\	.
.	16a\	.
.	16b\JJ	.
.	16cc\LL	.
.	16dd\	.
.	16ee\	.
.	16ff#X\JJ	.
=28	=28	=28
!LO:TX:a:t=P:problem=mixed beam	!	!
16BB/LL	8gg\	.
16B\	.	.
16A#X\	8r	.
16B\JJ	.	.
*rep	*	*
16BB/LL	8dd\	.
16B\	.	.
16A#\	8r	.
16B\JJ	.	.
*Xrep	*	*
*rep	*	*
16BB/LL	8b\	.
16B\	.	.
16A#\	8r	.
16B\JJ	.	.
*Xrep	*	*
*rep	*	*
16BB/LL	8g/	.
16B\	.	.
16A#\	8r	.
16B\JJ	.	.
*Xrep	*	*
=29	=29	=29
!LO:TX:a:t=P:problem=mixed beam	!	!
16C/LL	8ee\	.
16c\	.	.
16B\	8r	.
16c\JJ	.	.
*rep	*	*
16C/LL	8aa\	.
16c\	.	.
16B\	8r	.
16c\JJ	.	.
*Xrep	*	*
*rep	*	*
16C/LL	8ccc\	.
16c\	.	.
16B\	8r	.
16c\JJ	.	.
*Xrep	*	*
*rep	*	*
16C/LL	8eee\	.
16c\	.	.
16B\	8r	.
16c\JJ	.	.
*Xrep	*	*
=30	=30	=30
16D\LL	2dd\	.
16d\	.	.
16c#X\	.	.
16d\JJ	.	.
*rep	*	*
16D\LL	.	.
16d\	.	.
16c#\	.	.
16d\JJ	.	.
*Xrep	*	*
*rep	*	*
16D\LL	2aa\	.
16d\	.	.
16c#\	.	.
16d\JJ	.	.
*Xrep	*	*
*rep	*	*
16D\LL	.	.
16d\	.	.
16c#\	.	.
16d\JJ	.	.
*Xrep	*	*
=31	=31	=31
!LO:TX:a:t=P:problem=mixed beam	!	!
8GG/L	4b\ 4gg	.
8G\	.	.
8D\	4b\ 4gg	.
8BB\J	.	.
4GG/	2b\ 2gg	.
4r	.	.
=32:|!|:	=32:|!|:	=32:|!|:
*tremolo	*	*
8GG\L 8G	4b\ 4dd 4gg	.
8GG\ 8G	.	.
8GG\ 8G	16g/LL	.
.	16f#X/	.
8GG\J 8G	16g/	.
.	16a/JJ	.
8GG\L 8G	4g/	.
8GG\ 8G	.	.
8GG\ 8G	4b/	.
8GG\J 8G	.	.
=33	=33	=33
8GG\L 8G	2f#X/ 2a	.
8GG\ 8G	.	.
8GG\ 8G	.	.
8GG\J 8G	.	.
8GG\L 8G	2r	.
8GG\ 8G	.	.
8GG\ 8G	.	.
8GG\J 8G	.	.
=34	=34	=34
8GG\L 8G	4b\ 4dd 4gg	.
8GG\ 8G	.	.
8GG\ 8G	16b\LL	.
.	16a\	.
8GG\J 8G	16b\	.
.	16cc\JJ	.
8GG\L 8G	4b\	.
8GG\ 8G	.	.
8GG\ 8G	4f\ 4dd	.
8GG\J 8G	.	.
=35	=35	=35
8GG\L 8G	2e\ 2cc	.
8GG\ 8G	.	.
8GG\ 8G	.	.
8GG\J 8G	.	.
8GG\L 8G	2r	.
8GG\ 8G	.	.
8GG\ 8G	.	.
8GG\J 8G	.	.
!!LO:PB:g=original
=36	=36	=36
8GG\L 8G	4b\ 4dd 4gg	.
8GG\ 8G	.	.
8GG\ 8G	16dd\LL	.
.	16cc\	.
8GG\J 8G	16dd\	.
.	16ee\JJ	.
8GG\L 8G	4dd\	.
8GG\ 8G	.	.
8GG\ 8G	4ff\	.
8GG\J 8G	.	.
=37	=37	=37
!LO:TX:a:t=c	!	!
!LO:SIC:s=8CC/L 8C	!	!
8DD/L 8D	16ee\LL	.
.	16cc\	.
!LO:SIC:s=8CC/ 8C	!	!
8DD/ 8D	16dd\	.
.	16ee\JJ	.
!LO:SIC:s=8CC/ 8C	!	!
8DD/ 8D	16ff\LL	.
.	16gg\	.
!LO:SIC:s=8CC/J 8C	!	!
8DD/J 8D	16aa\	.
.	16bb\JJ	.
!LO:TX:a:t=c	!	!
!LO:SIC:s=8CC/L 8C	!	!
8DD/L 8D	4ccc\	.
!LO:SIC:s=8CC/ 8C	!	!
8DD/ 8D	.	.
!LO:SIC:s=8CC/ 8C	!	!
8DD/ 8D	4r	.
!LO:SIC:s=8CC/J 8C	!	!
8DD/J 8D	.	.
=38	=38	=38
!LO:TX:a:t=d	!	!
!LO:SIC:s=8DD/L 8D	!	!
8EE/L 8E	16ff\LL	.
.	16cc\	.
!LO:SIC:s=8DD/ 8D	!	!
8EE/ 8E	16dd\	.
.	16ee\JJ	.
!LO:SIC:s=8DD/ 8D	!	!
8EE/ 8E	16ff\LL	.
.	16gg\	.
!LO:SIC:s=8DD/J 8D	!	!
8EE/J 8E	16aa\	.
.	16bb\JJ	.
!LO:TX:a:t=d	!	!
!LO:SIC:s=8DD/L 8D	!	!
8EE/L 8E	4ccc\	.
!LO:SIC:s=8DD/ 8D	!	!
8EE/ 8E	.	.
!LO:SIC:s=8DD/ 8D	!	!
8EE/ 8E	4r	.
!LO:SIC:s=8DD/J 8D	!	!
8EE/J 8E	.	.
=39	=39	=39
8EE/L 8E	16gg\LL	.
.	16cc\	.
8EE/ 8E	16dd\	.
.	16ee\JJ	.
8EE/ 8E	16ff\LL	.
.	16gg\	.
8EE/J 8E	16aa\	.
.	16bb\JJ	.
8EE/L 8E	4ccc\	.
8EE/ 8E	.	.
8EE/ 8E	4r	.
8EE/J 8E	.	.
*Xtremolo	*	*
=40	=40	=40
!	!LO:TX:a:t=P:problem=mixed beam	!
4FF\ 4F	8aa\L	.
.	8a/	.
4r	8b/	.
.	8cc#X/J	.
2r	8dd\L	.
.	8ee\	.
.	8ff\	.
.	8gg\J	.
=41	=41	=41
!	!	!LO:HP:a:i:t=p:
!	!	!LO:DY:a
8f>\L 8a>	2aa/	p
8f>\ 8a>	.	.
8f>\ 8a>	.	.
8f>\J 8a>	.	.
*tremolo	*	*
8f>\L 8a>	8gg/L	.
8f>\ 8a>	8ff/	.
8f>\ 8a>	8ee/	.
8f>\J 8a>	8dd/J	.
=42	=42	=42
8f>\L 8a>	4.cc#/	.
8f>\ 8a>	.	.
8f>\ 8a>	.	.
8f>\J 8a>	16dd/LL	.
.	16ee/JJ	.
8f>\L 8a>	4dd/	.
8f>\ 8a>	.	.
8f>\ 8a>	4r	.
8f>\J 8a>	.	.
=43	=43	=43
8e>\L 8g>	2gg/	.
8e>\ 8g>	.	.
8e>\ 8g>	.	.
8e>\J 8g>	.	.
8e>\L 8g>	8ff/L	.
8e>\ 8g>	8ee/	.
8e>\ 8g>	8dd/	.
8e>\J 8g>	8cc/J	.
!!LO:LB:g=original
=44	=44	=44
!LO:TX:a:t=P:problem=w taktach 44-66 część nut wykreślona	!	!
8d>\L 8f>	4.b/	.
8d>\ 8f>	.	.
8d>\ 8f>	.	.
8d>\J 8f>	16cc/LL	.
.	16dd/JJ	.
8c>\L 8e>	4cc/	.
8c>\ 8e>	.	.
8c>\ 8e>	4r	.
8c>\J 8e>	.	.
=45	=45	=45
8B\L 8d	4b/	.
8B\ 8d	.	.
8B\ 8d	2b/	.
8B\J 8d	.	.
8A\L 8c	.	.
8A\ 8c	.	.
8A\ 8c	4cc/	.
8A\J 8c	.	.
=46	=46	=46
8B\L 8d	4dd/	.
8B\ 8d	.	.
8B\ 8d	2dd/	.
8B\J 8d	.	.
8A\L 8c	.	.
8A\ 8c	.	.
8A\ 8c	4ee\	.
8A\J 8c	.	.
=47	=47	=47
8G#\L 8B	2ff\	.
8G#\ 8B	.	.
8G#\ 8B	.	.
8G#\J 8B	.	.
8G#\L 8B	4ee\	.
8G#\ 8B	.	.
8G#\ 8B	4dd\	.
8G#\J 8B	.	.
=48	=48	=48
8A\L	16cc\LL	.
.	16a\	.
8A\	16cc\	.
.	16ee\JJ	.
8A\	16aa\LL	.
.	16ee\	.
8A\J	16cc\	.
.	16a\JJ	.
8G\L	16cc#X\LL	.
.	16a\	.
8G\	16cc#\	.
.	16ee\JJ	.
8G\	16aa\LL	.
.	16ee\	.
8G\J	16cc#\	.
.	16a\JJ	.
=49	=49	=49
8F\L	16dd\LL	.
.	16a\	.
8F\	16dd\	.
.	16ff\JJ	.
8F\	16aa\LL	.
.	16ff\	.
8F\J	16dd\	.
.	16a\JJ	.
8D\L	16dd\LL	.
.	16a\	.
8D\	16dd\	.
.	16ff\JJ	.
8D\	16aa\LL	.
.	16ff\	.
8D\J	16dd\	.
.	16a\JJ	.
=50	=50	=50
8G\L	16b\LL	.
.	16g\	.
8G\	16b\	.
.	16dd\JJ	.
8G\	16gg\LL	.
.	16dd\	.
8G\J	16b\	.
.	16g\JJ	.
8F\L	16b\LL	.
.	16g\	.
8F\	16b\	.
.	16dd\JJ	.
8F\	16gg\LL	.
.	16dd\	.
8F\J	16b\	.
.	16g\JJ	.
!!LO:LB:g=original
=51	=51	=51
8E\L	16cc\LL	.
.	16g\	.
8E\	16cc\	.
.	16ee\JJ	.
8E\	16gg\LL	.
.	16ee\	.
8E\J	16cc\	.
.	16g\JJ	.
8C\L	16cc\LL	.
.	16g\	.
8C/	16cc\	.
.	16ee\JJ	.
8C/	16gg\LL	.
.	16ee\	.
8C/J	16cc\	.
.	16g\JJ	.
=52	=52	=52
8F\L 8A	16a/LL	.
.	16cc#X/	.
8F\ 8A	16dd/	.
.	16cc#/JJ	.
8F\ 8A	4dd/	.
8F\J 8A	.	.
8F\L 8A	16dd/LL	.
.	16ee/	.
8F\ 8A	16ff/	.
.	16ee/JJ	.
8F\ 8A	4ff/	.
8F\J 8A	.	.
=53	=53	=53
8F\L 8A	16ff/LL	.
.	16gg/	.
8F\ 8A	16aa/	.
.	16gg/JJ	.
8F\ 8A	4aa/	.
8F\J 8A	.	.
*Xtremolo	*	*
8F\L	16aa/LL	.
.	16gg/	.
8F\	16ff/	.
.	16ee/JJ	.
8F#\	16dd/LL	.
.	16cc/	.
8F#\J	16b/	.
.	16a/JJ	.
=54	=54	=54
!	!LO:TX:a:t=P:problem=mixed beam	!
8r	8g/L	.
!LO:N:vis=16	!	!
8G\L	8gg\	.
!LO:N:vis=16	!	!
8D\	8dd\	.
!LO:N:vis=16	!	!
8BB\J	8b\J	.
4GG/	4g/	.
4r	4r	.
=55	=55	=55
*tremolo	*	*
8e>\L 8g>	4cc/	.
8e>\ 8g>	.	.
8e>\ 8g>	2ccc/	.
8e>\J 8g>	.	.
8e>\L 8g>	.	.
8e>\ 8g>	.	.
8e>\ 8g>	4ee/	.
8e>\J 8g>	.	.
=56	=56	=56
8f>\L 8a>	8ee/L	.
8f>\ 8a>	8dd/J	.
8f>\ 8a>	2dd/	.
8f>\J 8a>	.	.
8g>\L 8b>	.	.
8g>\ 8b>	.	.
8g>\ 8b>	4ee/	.
8g>\J 8b>	.	.
=57	=57	=57
8a>\L 8cc>	4.ff/	.
8a>\ 8cc>	.	.
8a>\ 8cc>	.	.
8a>\J 8cc>	16ee/LL	.
.	16ff/JJ	.
8a>\L 8cc>	4gg/	.
8a>\ 8cc>	.	.
8a>\ 8cc>	4ff/	.
8a>\J 8cc>	.	.
=58	=58	=58
8b>\L	8dd#X/L	.
8cc>\J	8ee/J	.
4cc>\	4ee/	.
!	!LO:TX:a:t=P:problem=pauza nad ostatnią ósemką w takcie	!
8b>\L	2r	.
8a>\	.	.
8g>\	.	.
8f>\J	.	.
!!LO:LB:g=original
=59	=59	=59
8e>\L 8g>	4cc/	.
8e>\ 8g>	.	.
8e>\ 8g>	4ccc/	.
8e>\J 8g>	.	.
8e>\L 8g>	8ccc/L	.
8e>\ 8g>	8bb/	.
8e>\ 8g>	8aa/	.
8e>\J 8g>	8gg/J	.
=60	=60	=60
8f>\L 8a>	8gg#X/L	.
8f>\ 8a>	8aa/J	.
8f>\ 8a>	4aa/	.
8f>\J 8a>	.	.
8f>\L 8a>	8aa/L	.
8f>\ 8a>	8ff/	.
8f>\ 8a>	8aa/	.
8f>\J 8a>	8ee/J	.
=61	=61	=61
8g>\L	2ff/	.
8g>\	.	.
8g>\	.	.
8g>\J	.	.
!	!LO:TX:a:t=h.	!
!	!LO:SIC:s=2b/	!
8G/L	2dd/	.
8G/	.	.
8G/	.	.
8G/J	.	.
*Xtremolo	*	*
=62	=62	=62
4c\	4cc\	.
4ff>/	16rddd	.
.	16aa/LL	.
.	16ccc/	.
.	16aa/JJ	.
4ee>\	16rccc	.
.	16gg/LL	.
.	16ccc/	.
.	16gg/JJ	.
4dd>\	16raa	.
.	16ff/LL	.
.	16ccc/	.
.	16ff/JJ	.
=63	=63	=63
4cc>\	4ee\	.
4f>\	16rff	.
.	16a/LL	.
.	16cc/	.
.	16a/JJ	.
4e>\	16rdd	.
.	16g/LL	.
.	16cc/	.
.	16g/JJ	.
4d>\	16rcc	.
.	16f/LL	.
.	16cc/	.
.	16f/JJ	.
=64	=64	=64
4c\	16e/LL	.
.	16c/	.
.	16d/	.
.	16e/JJ	.
4r	16f/LL	.
.	16g/	.
.	16a/	.
.	16b/JJ	.
2r	16cc/LL	.
.	16g/	.
.	16a/	.
.	16b/JJ	.
.	16cc\LL	.
.	16dd\	.
.	16ee\	.
.	16ff\JJ	.
=65	=65	=65
16EE/LL	8gg\	.
16E/	.	.
16D/	8r	.
16E/JJ	.	.
*rep	*	*
16EE/LL	8ee\	.
16E/	.	.
16D/	8r	.
16E/JJ	.	.
!!LO:LB:g=original
*Xrep	*	*
*rep	*	*
16EE/LL	8cc\	.
16E/	.	.
16D/	8r	.
16E/JJ	.	.
*Xrep	*	*
*rep	*	*
16EE/LL	8g/	.
16E/	.	.
16D/	8r	.
16E/JJ	.	.
*Xrep	*	*
=66	=66	=66
16FF/LL	8a/	.
16F/	.	.
16E/	8r	.
16F/JJ	.	.
*rep	*	*
16FF/LL	8dd/	.
16F/	.	.
16E/	8r	.
16F/JJ	.	.
*Xrep	*	*
*rep	*	*
16FF/LL	8ff\	.
16F/	.	.
16E/	8r	.
16F/JJ	.	.
*Xrep	*	*
*rep	*	*
16FF/LL	8aa\	.
16F/	.	.
16E/	8r	.
16F/JJ	.	.
*Xrep	*	*
=67	=67	=67
16GG/LL	2g/	.
16G/	.	.
16F#/	.	.
16G/JJ	.	.
*rep	*	*
16GG/LL	.	.
16G/	.	.
16F#/	.	.
16G/JJ	.	.
*Xrep	*	*
*rep	*	*
16GG/LL	2dd/	.
16G/	.	.
16F#/	.	.
16G/JJ	.	.
*Xrep	*	*
*rep	*	*
16GG/LL	.	.
16G/	.	.
16F#/	.	.
16G/JJ	.	.
*Xrep	*	*
=68	=68	=68
4c\	4cc/	.
4ff>\	16rddd	.
.	16aa/LL	.
.	16ccc/	.
.	16aa/JJ	.
4ee>\	16rccc	.
.	16gg/LL	.
.	16ccc/	.
.	16gg/JJ	.
4dd>\	16rbb	.
.	16ff/LL	.
.	16ccc/	.
.	16ff/JJ	.
=69	=69	=69
4cc>\	4ee/	.
4f>\	16rdd	.
.	16a/LL	.
.	16cc/	.
.	16a/JJ	.
4e>\	16rcc	.
.	16g/LL	.
.	16cc/	.
.	16g/JJ	.
!LO:SIC:s=4d	!	!
4e>\	16rb	.
.	16f/LL	.
.	16cc/	.
.	16f/JJ	.
=70	=70	=70
4c\	16e/LL	.
.	16c/	.
.	16d/	.
.	16e/JJ	.
4r	16f/LL	.
.	16g/	.
.	16a/	.
.	16b/JJ	.
2r	16cc/LL	.
.	16g/	.
.	16a/	.
.	16b/JJ	.
.	16cc\LL	.
.	16dd\	.
.	16ee\	.
.	16ff\JJ	.
=71	=71	=71
16EE/LL	8gg\	.
16E/	.	.
16D/	8r	.
16E/JJ	.	.
*rep	*	*
16EE/LL	8ee\	.
16E/	.	.
16D/	8r	.
16E/JJ	.	.
*Xrep	*	*
*rep	*	*
16EE/LL	8cc\	.
16E/	.	.
16D/	8r	.
16E/JJ	.	.
*Xrep	*	*
*rep	*	*
16EE/LL	8g/	.
16E/	.	.
16D/	8r	.
16E/JJ	.	.
!!LO:PB:g=original
*Xrep	*	*
=72	=72	=72
!LO:TX:a:t=P:problem=mixed beam	!	!
16FF/LL	8a/	.
16F\	.	.
16E\	8r	.
16F\JJ	.	.
*rep	*	*
16FF/LL	8dd/	.
16F\	.	.
16E\	8r	.
16F\JJ	.	.
*Xrep	*	*
*rep	*	*
16FF/LL	8ff\	.
16F\	.	.
16E\	8r	.
16F\JJ	.	.
*Xrep	*	*
*rep	*	*
16FF/LL	8aa\	.
16F\	.	.
16E\	8r	.
16F\JJ	.	.
*Xrep	*	*
=73	=73	=73
!LO:TX:a:t=P:problem=mixed beam	!	!
16GG/LL	2g/	.
16G\	.	.
16F#X\	.	.
16G\JJ	.	.
*rep	*	*
16GG/LL	.	.
16G\	.	.
16F#\	.	.
16G\JJ	.	.
*Xrep	*	*
*rep	*	*
16GG/LL	2dd\	.
16G\	.	.
16F#\	.	.
16G\JJ	.	.
*Xrep	*	*
*rep	*	*
16GG/LL	.	.
16G\	.	.
16F#\	.	.
16G\JJ	.	.
*Xrep	*	*
=74	=74	=74
!LO:TX:a:t=P:problem=mixed beam	!	!
8C/L	4cc\	.
8c\	.	.
8G\	4ee\ 4gg 4ccc	.
8E\J	.	.
4C/	4ee\ 4gg 4ccc	.
4r	4r	.
==	==	==
*-	*-	*-
!!!system-decoration: {(s1,s2)}
!!!RDF**kern: > = above
!!!RDF**kern: < = below
!!!EED: Mateusz Mrugas
!!!EEV: 2020-12-06
!!!ENC: Marcin Jachim
!!!END: 2020-06-18
!!!YEC: Copyright 2022 Narodowy Instytut Fryderyka Chopina (https://polishscores.org)
!!!YEM: License CC-BY-4.0 (https://creativecommons.org/licenses/by/4.0)
